src/main/resources/icons/RIcons/icons/toolWindow/rTable_dark.svg

<svg width="13" height="13" viewBox="0 0 13 13" fill="none" xmlns="http://www.w3.org/2000/svg"><rect id="frame" width="13" height="13" fill="none"/><path fill-rule="evenodd" clip-rule="evenodd" d="M12 2H1v9h11V2zM5 5h3v2H5V5zm3 3H5v2h3V8zM2 8h2v2H2V8zm9 0H9v2h2V8zM9 5h2v2H9V5zM4 5H2v2h2V5z" fill="#AFB1B3"/></svg>

<svg width="13" height="13" viewBox="0 0 13 13" fill="none" xmlns="http://www.w3.org/2000/svg">
<path fill-rule="evenodd" clip-rule="evenodd" d="M12 2H1V11H12V2ZM5 5H8V7H5V5ZM8 8H5V10H8V8ZM2 8H4V10H2V8ZM11 8H9V10H11V8ZM9 5H11V7H9V5ZM4 5H2V7H4V5Z" fill="#AFB1B3"/>
</svg>
